X:1
T:James Gibb editions
T:Psalm 150 (Becker) - Schütz
%%score [ ( 1 2 ) ( 3 4 ) ]
L:1/8
Q:1/4=98
M:3/4
K:Bb
V:1 treble nm="Soprano Alto"
V:2 treble 
V:3 bass nm="Tenor Bass"
V:4 bass 
V:1
"^Cornelius Becker\n(1561-1604)""^Psalm 150, SWV 255""^Heinrich Schütz\n(1585-1672)" G2 d2 d2 | %1
w: ~Lobt Gott in|
 d4 B2 | c4 e2 | d4 z2 | d2 d2 f2 | e4 d2 | c4 c2 | B4 z2 | d2 c2 B2 | c4 A2 | B4 B2 | A4 z2 | %12
w: sei- nem|Hei- lig-|tum,|ge- bet dem|Her- ren|Ehr und|Ruhm,|und prei- set|sei- ne|gro- ße|Pracht|
 A2 B2 c2 | d4 B2 | c2 A4 | G12 |] %16
w: wohl in der|Fe- ste|sei- ner|Macht.|
V:2
 D2 G2 G2 | ^F4 G2 | G4 G2 | G4 z2 | B2 B2 A2 | G4 F2 | F4 F2 | F4 z2 | F2 F2 D2 | F4 F2 | D4 =E2 | %11
 F4 z2 | ^F2 G2 A2 | B4 G2 | G2 ^F4 | G12 |] %16
V:3
 B,2 B,2 B,2 | A,4 G,2 | G,4 C2 | =B,4 z2 | G,2 B,2 D2 | B,4 B,2 | A,4 A,2 | B,4 z2 | B,2 A,2 G,2 | %9
 A,4"^2. Lobt ihn in seinen Taten all,\ngroß sind seine Werk allzumal,\nlasset euch finden stets bereit,\nzu loben seine Herrlichkeit.\n\n3. Lobet den Herrn mit frohem Mut\nund blaset die Posaunen gut,\nmit Psalter und mit Harfenspiel\nlobt ihn und macht der Freuden viel.\n\n4. Lobet den Herren mit Gesang\nund laßt hergehn der Pauken Klang,\ndie Saiten lieblich klingen drein\nmit Pfeifen fröhlich in den Reihn.\n\n5. Lobt Gott mit hellen Cymbeln fein,\nlaßt uns im Herren fröhlich sein,\nalles, was lebt und Odem hat,\nlobe den Herren früh und spat." C2 | %10
 B,4 G,2 | C4 z2 | D2 D2 F2 | F4 E2 | E2 D4 | D12 |] %16
V:4
 G,2 G,2 G,2 | D,4 G,2 | E,4 C,2 | G,4 z2 | G,2 G,2 D,2 | E,4 B,,2 | F,4 F,2 | B,,4 z2 | %8
 B,,2 F,2 G,2 | F,4 F,2 | G,4 G,2 | F,4 z2 | D,2 G,2 F,2 | B,4 E,2 | C,2 D,4 | G,,12 |] %16

